!!!COM: Bach, Johann Sebastian
!!!OTA: Das wohltemperirte Clavier
!!!OPR: Das wohltemperierte Klavier
!!!OTL: Fuga 6, Vol. 1
!!!XEN: The Well-Tempered Clavier, Volume 1, Fugue 6.
!!!ONB: D minor, 3-part
!!!SCT: BWV 851b
!!!YEC: Copyright 1994, David Huron
!!!YEM: Rights to all derivative electronic formats reserved.
!!!RNB: The texture increases to four voices in the final two measures.
**kern	**kern	**kern
*staff2	*staff1	*staff1
*clefF4	*clefG2	*clefG2
*k[b-]	*k[b-]	*k[b-]
*M3/4	*M3/4	*M3/4
*d:	*d:	*d:
*MM78	*MM78	*MM78
=1	=1	=1
2.r	2.r	8r
.	.	8d
.	.	8e
.	.	8f
.	.	8g
.	.	8e
=2	=2	=2
2.r	2.r	16f
.	.	{16d
.	.	16c#
.	.	16d}
.	.	4b-'
.	.	4gT
=3	=3	=3
2.r	8r	[4a
.	8A	.
.	8Bn	16a]
.	.	16g
.	8c	16f
.	.	16e
.	8d	16g
.	.	16f
.	8B	16e
.	.	16d
=4	=4	=4
2.r	16c	8e
.	{16A	.
.	16G#	[8cc
.	16A}	.
.	4f'	16cc]
.	.	16bn
.	.	16a
.	.	16b
.	4dT	16b
.	.	16a
.	.	16g#
.	.	16a
=5	=5	=5
2.r	[4e	16a
.	.	16gn
.	.	16f#
.	.	16g
.	16e]	4ee
.	16d	.
.	16c#	.
.	16Bn	.
.	16d	4g
.	16c#	.
.	16B	.
.	16A	.
=6	=6	=6
8r	4d	8f
8D	.	[8dd
8E	4r	16dd]
.	.	16cc
8F	.	16b-
.	.	16a
8G	4r	16cc
.	.	16b-
8E	.	16a
.	.	16g
=7	=7	=7
16F	8r	4a
16D	.	.
16C#	[8f	.
16D	.	.
4B-'	16f]	[2g
.	16e	.
.	16d	.
.	16e	.
4GT	16e	.
.	16d	.
.	16c#	.
.	16d	.
=8	=8	=8
[4A	4c#	8g]
.	.	8e
16A]	8d	8f
16G	.	.
16F	8e	8g
16E	.	.
16G	8c#	8a
16F	.	.
16E	8d	8f
16D	.	.
=9	=9	=9
8G	8e-	16b-
.	.	16g
[8B-	8d	16f#
.	.	16g
16B-]	4g	4ee-
16A	.	.
16G	.	.
16A	.	.
16A	4en	4cc#
16G	.	.
16F	.	.
16G	.	.
=10	=10	=10
16G	16r	4dd
16F	16a	.
16E	16g	.
16F	16a	.
16A	4f	4dd'
16G	.	.
16F	.	.
16G	.	.
16G	4d	4bn
16F	.	.
16E	.	.
16F	.	.
=11	=11	=11
16F	16r	4cc
16E	16g	.
16D	16f	.
16E	16g	.
16G	4e-	4cc
16F	.	.
16E-	.	.
16F	.	.
16F	4c	4a
16E-	.	.
16D	.	.
16E-	.	.
=12	=12	=12
16E-	8r	[2.b-
16D	.	.
16C#	8a	.
16D	.	.
4B-'	8g	.
.	8f	.
4GT	8en	.
.	8g	.
=13	=13	=13
[4A	4c#	8b-]
.	.	8a
16A]	8d	8bn
16G	.	.
16F	8e	8cc#
16E	.	.
16G	4A	8dd
16F	.	.
16E	.	8b
16D	.	.
=14	=14	=14
8E	8r	16cc#
.	.	16a
8C#	8e	16g#
.	.	16a
8D	8d	4ff'
8E	8c#	.
8F	8Bn	4ddT
8D	8d	.
=15	=15	=15
4A	16c#	8ee
.	16e	.
.	16f	[8aa
.	16e	.
8F#	4A	16aa]
.	.	16gg
8E	.	16ff#
.	.	16ee
8D	4cn	16gg
.	.	16ff#
8F#	.	16ee
.	.	16dd
=16	=16	=16
4G	16B-	16ee-
.	16d	16ccc
.	16e-	8bb-
.	16d	.
8G#	4Bn	16r
.	.	16aa
8F#	.	16gg#
.	.	16ff#
8E	[4en	16aa
.	.	16gg#
8G#	.	16ff#
.	.	16een
=17	=17	=17
8A	8e]	16dd
.	.	16cc
8AA	8r	16bn
.	.	16cc
8BBn	4r	16cc
.	.	16b
8C	.	16a
.	.	16b
8D	4r	16b
.	.	16a
8BB	.	16g#
.	.	16a
=18	=18	=18
16C#	8r	[4gn
16AA	.	.
16GG#	8A	.
16AA	.	.
4F	8Bn	16g]
.	.	16f
.	8c#	16e
.	.	16f
4DT	8d	16f
.	.	16e
.	8B	16d
.	.	16a
=19	=19	=19
8E	16cn	[2.a
.	16A	.
8F	16G#	.
.	16A	.
16E	4f'	.
16D	.	.
16C	.	.
16D	.	.
16D	4dT	.
16C	.	.
16BBn	.	.
16C	.	.
=20	=20	=20
8C	8e	4a_
8D	8f	.
8E	2BnT	16a]
.	.	16dd#
8D	.	16ee
.	.	16a
4E	.	16cc
.	.	16bn
.	.	16a
.	.	16g#
=21	=21	=21
8A	4A	[4aO
8AA	.	.
8BBn	4r	16a]
.	.	16g
8C#	.	16f
.	.	16e
8D	4r	16g
.	.	16f
8BB	.	16e
.	.	16d
=22	=22	=22
16C#	2.r	8e
16AA	.	.
16GG#	.	8ee
16AA	.	.
4F'	.	8dd
.	.	8cc#
4DT	.	8bn
.	.	8dd
=23	=23	=23
8A	2.r	16cc#
.	.	16ee
8F	.	16ff
.	.	16ee
8E	.	4g'
8D	.	.
8C#	.	[4b-
8E	.	.
=24	=24	=24
16D	2.r	16b-]
16F	.	16a
16G	.	16g
16F	.	16a
4AA'	.	16a
.	.	16g
.	.	16f
.	.	16g
4C#T	.	16g
.	.	16f
.	.	16e
.	.	16f
=25	=25	=25
2.D	8r	[4f
.	8d	.
.	8c	16f]
.	.	16e
.	8B-	16f#
.	.	16g
.	8A	16f#
.	.	16g
.	8c	16a
.	.	16g
=26	=26	=26
8r	4B-	16g
.	.	16a
8G	.	16b-
.	.	16a
8F#	2d	16a
.	.	16bn
8E	.	16cc
.	.	16b
8D	.	16b
.	.	16cc#
8Fn	.	16dd
.	.	16cc#
=27	=27	=27
[4E	4G	8cc#
.	.	8aa
16E]	4r	8gg
16D	.	.
16C#	.	8ff
16BBn	.	.
16D	4r	8ee
16C#	.	.
16BB	.	8gg
16AA	.	.
=28	=28	=28
4D	8r	16ff
.	.	16aa
.	8d	16bb-
.	.	16aa
4r	8e	4cc#
.	8f	.
4r	8g	[4ee
.	8e	.
=29	=29	=29
8r	16f	8ee]
.	16d	.
8A	16c#	8a
.	16d	.
8G	4b-	4dd
8F	.	.
8E	4gT	[4ccn
8G	.	.
=30	=30	=30
16F#	4a	8cc]
16A	.	.
16B-	.	[8ee-
16A	.	.
4D'	4F#'	16ee-]
.	.	16dd
.	.	16cc
.	.	16dd
4F#'	4A'	16dd
.	.	16cc
.	.	16b-
.	.	16cc
=31	=31	=31
4GG	16r	16cc
.	16G	16b-
.	16F#	16a
.	16G	16b-
4C'	4E'	16dd
.	.	16cc
.	.	16b-
.	.	16cc
4E'	4G'	16cc
.	.	16b-
.	.	16a
.	.	16b-
=32	=32	=32
4FF	16r	16b-
.	16F	16a
.	16E	16g
.	16F	16a
4BB-'	4D'	16cc
.	.	16b-
.	.	16a
.	.	16b-
4D'	4F'	16b-
.	.	16a
.	.	16g
.	.	16a
=33	=33	=33
2.E	8r	16a
.	.	16g
.	8F	16f
.	.	16g
.	8G	4ee
.	8A	.
.	8B-	4cc#T
.	8G	.
=34	=34	=34
8F	8A	[4dd
8D	8F	.
8E	8G	16dd]
.	.	16cc
8F#	8A	16b-
.	.	16a
8G	4G	16cc
.	.	16b-
8E	.	16a
.	.	16g
=35	=35	=35
16F#	8r	8a
16D	.	.
16C#	8A	8f#
16D	.	.
8B-	8G	8g
8A	8F#	8a
8G	8E	8b-
8B-	8G	8g
=36	=36	=36
8A	8F#	16a
.	.	16cc
8G	8B-	[8ee-
8F#	8A	16ee-]
.	.	16dd
8E	8G	16cc
.	.	16b-
8D	8F#	16dd
.	.	16cc
8F#	8A	16b-
.	.	16a
=37	=37	=37
8GG	8G	16b-
.	.	16dd
8A	8c	[8ff
8G#	8Bn	16ff]
.	.	16ee
8F#	8A	16dd
.	.	16cc#
8E	8G#	16ee
.	.	16dd
8G#	8B	16cc#
.	.	16bn
=38	=38	=38
8AA	8A	16cc#
.	.	16ee
8d	8f	[8bb-
8c#	8e	16bb-]
.	.	16aa
8Bn	8d	16gg
.	.	16ff
8A	8c#	16aa
.	.	16gg
8c#	8e	16ff
.	.	16ee
=39	=39	=39
8d	8d	16gg
.	.	16ff
8D	8r	16ee
.	.	16ff
8E	4r	16ff
.	.	16ee
8F	.	16dd
.	.	16ee
8G	4r	16ee
.	.	16dd
8E	.	16cc#
.	.	16dd
=40	=40	=40
16F#	8r	[4ccn
16D	.	.
16C#	8d	.
16D	.	.
4B-'	8e	16cc]
.	.	16b-
.	8f#	16a
.	.	16b-
4GT	8g	16b-
.	.	16a
.	8e	16g
.	.	16dd
=41	=41	=41
8A	16fn	[2.dd
.	16d	.
8B-	16c#	.
.	16d	.
16A	4b-	.
16G	.	.
16F	.	.
16G	.	.
16G	4gT	.
16F	.	.
16E	.	.
16F	.	.
=42	=42	=42
8F	8a	4dd_
8G	8b-	.
8A	2eT	16dd]
.	.	16gg#
8G	.	16aa
.	.	16dd
4A	.	16ff
.	.	16ee
.	.	16dd
.	.	16cc#
=43	=43	=43
*	*	*^
!! Four-voice material to the end:
2.D	8r 8r	8r 8r	2.dd
.	8D 8F#	8a 8cc	.
.	8E 8G	8g 8b-	.
.	8F# 8A	8f# 8a	.
.	8G 8B-	8e 8g	.
.	8E 8G	8g 8b-	.
=44	=44	=44	=44
2.D;	2.F#; 2.A;	2.f#; 2.a;	2.dd;
==	==	==	==
*-	*-	*-	*-
!!!CDT: 1685/3/-1750/7/28
!!!OCY: Deutschland
!!!PPP: Coethen; Cothen; Co2then
!!!ODT: <1722//
!!!PDT: 1722
!!!AFR: fuga; fugue
!!!AST: polyphony
!!!AMT: simple triple
!!!SCA: Bach-Werke-Verzeichnis
!!!YOR: Bach Gesellschaft
!!!SMS: British Library, various
!!!AIN: cemba; clavi
!!!EEV: 1.0
!!!RDT: 1986 November 17
!!!YER: 1994 August 10
!!!EFL: 6/48
!!!VTS: 1750222351
